X:1
T:Title
%%score 1 { 2 | 3 }
L:1/8
Q:1/4=85
M:6/8
K:Ab
V:1 treble nm="Grand Piano, Soprano"
V:2 bass nm="Choir Pad, Bass"
V:3 bass 
V:1
 E[Ec]>[DB] [CA][CE][CA] | [DB][Ec]>[DB] [CA] [CE]2 | [CE][CA]>[CA] [CA][CA][CG] | %3
w: By~Robert~Lowry,~1873 * * * * *|||
 [CA] [EB]2- [EB]2- [EB]/ z/ | E[Ec]>[Ec] [Ec][EA][EB] | [_Gc][Fd]>[Fd] [Fd] [Fd]2 | %6
w: |||
 [FB][EA]>[EA] [EA][DG][DF] | [DG] [CA]2- [CA]2- [CA]/ z/ | E[EB]>[EB] [EB][CA][EG] | %9
w: |||
 [DF][CE][EA]- [EA]/[EB]/ [EA]2 | [EA][FA]>[FA] [FA][FB][FA] | [DF] [CE]2- [CE]2- [CE]/ z/ | %12
w: |||
 E[Ec]>[Ec] [Ec][EA][EB] | [_Gc][Fd]>[Fd] [Fd] [Fd]2 | [FB][EA]>[EA] [EA][DG][DF] | %15
w: |||
 [DG] [CA]2- [CA]3- | [CA]3 z3 |] %17
w: ||
V:2
 E,A,>A, A,A,A, | A,A,>A, A, A,2 | A,E,>E, E,A,A, | A, G,2- G,2- G,/ z/ | G,A,>A, A,A,G, | %5
 A,A,>A, A, A,2 | DC>C CB,[K:bass]A, | B, A,2- A,2- A,/ z/ | G,G,>G, G,A,B, | %9
 B,A,[K:treble]C- C/D/ C2 | CD>D DDD | B, A,2- A,2- A,/ z/ | G,A,>A, A,A,G, | A,A,>A, A, A,2 | %14
 DC>C CB,[K:bass]A, | B, A,2- A,3- | A,3 z3 |] %17
V:3
 z A,,>A,, A,,A,,A,, | A,,A,,>A,, A,, A,,2 | A,,A,,>A,, A,,F,F, | F, E,2- E,2- E,/ z/ | %4
 E,A,,>A,, A,,C,E, | z D,>D, D, D,2 | D,E,>E, E,E,E, | E, A,,2- A,,2- A,,/ z/ | E,E,>E, E,E,E, | %9
 E,A,,A,,- A,,/A,,/ A,,2 | A,D,>D, D,D,D, | D, A,,2- A,,2- A,,/ z/ | E,A,,>A,, A,,C,E, | %13
 z D,>D, D, D,2 | D,E,>E, E,E,E, | E, A,,2- A,,3- | A,,3 z3 |] %17

